X:1
T:Swan Lake Act II, No. 4, Part 5, White Swan Pas de Deux Cello Violin Duet
T:Swan Lake
T:Act II, No. 4, Pt. 5, White Swan Pas de Deux, Cello and Violin Duet
T:P. I. Tchaikovsky 
C:Pyotr Ilyich Tchaikovsky
%%score 1 2
L:1/8
Q:1/8=90
M:6/8
K:Gb
V:1 treble nm="Violin" snm="Vln."
V:2 tenor nm="Violoncello" snm="Vc."
V:1
 z6 | z6 | z6 | z3!p!"^Tempo I" !1!b3 | (c'3 c'2) c' | (2:3:2(=c'd') (_c'2 !3!b) | (b3 a3 | %7
 g) z z3 z | z3 z2 ue' | (e'2 d') (c'2 f) | (!2!=g2 g) z z2 | z ue'2 e'2 e' | %12
 (d'c'!2!b) (ba!1!=g) | z !3!_f'2 f'2 f' | (!3!e'd'!3!=c') (_c'b=a) | z ug'2"_restez" g'2 g' | %16
!mf! (!4!f'f)(f' !4!e'e)(!4!e' | !4!=d'b).d' (d'^c')(!3!d' | e').vE.vF .uG.uA.vB | %19
 u!3!c z v!1!e (uagf) | (e2 f g) z (e | b).!1!b.c' .!1!=c'.d'.=d' | .!4!e'(!1!ef g) z z | %23
 (!trill(!T!2!e'6 | !trill)!e'6) |({!1!=d'e'} d'/f'/d'/!2!c'/!1!a/f/) (=d/!4!a/f/d)d/ | %26
 (!trill(!Te6 | (e6) | (e6) | (e6) | !trill)!e2) z z3 |"^pizz." E2 z z3 | E2 z z3 |] %33
V:2
 z3 z!p! (ED) |"^riten." (cAF) (DCA,) | (.F,.G,.=G, .A,.=A,)(B, | %3
"_con molto espressione" E3) (D2 _G,) | (G,3 G,2) A, | (2:3:2(=A,B,) (E2 D) | D3 (E2 F) | %7
 (GFE) (B,2 C) | (B,3 B,2) (E, | A,2) (B, C2) (A, | (B,3 B,2)) (E |"^poco cresc." A,3) (B,2 C) | %12
 (D3 D2) (_F | B,3) (C2 D) | (E3 E2) (G | =C3) (D2 E) | F3 (=G2 =A) | (B3 B2) (B, | G2 F E2) E | %19
 (AGF) E2 E | (AGF) (E=DE) | A3 (G2 F) | (E3 E2) E | (ECB, A,2) A, | E(.E,.F, .G,.A,.B,) | %25
"^riten." ((C3 C2) B,) | (E,=D,E, F,G,B, | E)(F,G, =A,B,E | (G6 | (G6) | G2)) z z3 | %31
!pp!"^pizz." E,2 z z3 | E,2 z z3 |] %33

